X:9955
T:Lovly Nancy. JC.121
M:3/4
L:1/8
Q:145
S:John Clare,Poet,Helpston. (1793-1864)
R:Air
O:England
A:Northamptonshire
N:
Z:P Headford
K:G
BA|G2G2((3GAB)|A2A2((3ABc)|B2gedB|B2A2B>A|!
G2G2dB|A2A2ge|d>e dB A>B|G4:|!
|:Bc|d2d2ge|d2d2B>c|d2d2gB|B2A2B>A|!
G2G2dB|A2A2ge|d>e d>B A>B|G4:|]
W:Song text exists. See Deacon.


